browser/images/lc_wrapanchoronly.svg

<svg viewBox="0 0 24 24" xmlns="http://www.w3.org/2000/svg"><g stroke-linecap="round" stroke-linejoin="round"><path d="m2.5 18.5h19zm0 3h19z" fill="#fafafa" stroke="#3a3a38"/><g fill="#83beec" stroke="#0063b1"><path d="m6.5 2.5v13zm3 0v13z"/><path d="m6 2.5h6.5zm9.5 0h6z"/><path d="m5.5 2.5a4 4 0 0 0 -4 4 4 4 0 0 0 4 4 4 4 0 0 0 1-.130859v-7.7363285a4 4 0 0 0 -1-.1328125z" fill="#83beec" fill-opacity=".982993" stroke-linecap="round" stroke-linejoin="round"/></g></g></svg>

<?xml-stylesheet type="text/css" href="icons.css" ?>
<svg viewBox="0 0 24 24" xmlns="http://www.w3.org/2000/svg">
  <g id="symbol"
     class="icn icn--area-color"
     fill="#fafafa"
     stroke="#3a3a38"
     stroke-linecap="round"
     stroke-linejoin="round"
      >
      <path d="M 2.5 18.5 L 21.5 18.5 L 2.5 18.5 z M 2.5 21.5 L 21.5 21.5 L 2.5 21.5 z " />
  </g>
  <g id="symbol"
	 class="icn icn--highlight-color"  
     fill="#83beec" 
     stroke="#1e8bcd" 
	 stroke-linecap="round" 
	 stroke-linejoin="round"
      >
      <path d="m 6.5,2.5 c -4.5,-0 -5,1.9 -5,4 0,3 2.5,4 5,4 z" />
      <path d="M 6.5 2.5 L 6.5 15.5 L 6.5 2.5 z M 9.5 2.5 L 9.5 15.5 L 9.5 2.5 z " />
      <path d="M 6 2.5 L 12.5 2.5 L 6 2.5 z M 15.5 2.5 L 21.5 2.5 L 15.5 2.5 z " />
  </g>
</svg>
